X: 41173
T: Tripping To The Well
R: polka
M: 2/4
K: Gmajor
|:G>A BG|EG ED|G>A Bd|BA AB|
G>A BG|EG ED|dB D/E/F/G/|AG G>D:|
|:dB G>A|BG ED|dB G>A|BA AB|
dB G>A|BG ED|dB D/E/F/G/|AG G>D:|

